img/yabloki.svg

<svg width="190" height="94" viewBox="0 0 190 94" fill="none" xmlns="http://www.w3.org/2000/svg">
<rect x="1" y="1.17859" width="188" height="91.6429" rx="11" fill="white" stroke="black" stroke-width="2"/>
<path d="M54.8657 57.3263V49.6304L47.9395 41.9631H50.3336L55.8347 48.0342L61.3075 41.9631H63.7301L56.7754 49.659V57.3263H54.8657Z" fill="#2B2B2A"/>
<path d="M68.399 51.3977H75.1542L71.7624 44.5854L68.399 51.3977V51.3977ZM63.4395 57.3263L70.9643 41.9631H72.5604L80.1708 57.3263H78.0901L76.0094 53.1933H67.5155L65.4918 57.3263H63.4395Z" fill="#2B2B2A"/>
<path d="M86.1655 48.0342H93.5194C94.3175 48.0342 94.9445 47.8348 95.3722 47.4926C95.7997 47.1221 95.9992 46.5806 95.9992 45.8966C95.9992 45.1838 95.7997 44.6423 95.3722 44.2717C94.9731 43.9012 94.346 43.7302 93.5194 43.7302H86.1655V48.0342ZM86.1655 55.5591H94.2034C95.0871 55.5591 95.7711 55.3026 96.2557 54.7896C96.7687 54.2764 97.0252 53.5639 97.0252 52.6804C97.0252 51.7966 96.7687 51.0841 96.2557 50.5711C95.7711 50.0579 95.0871 49.8014 94.2034 49.8014H86.1655V55.5591ZM84.2559 57.3263V41.9631H93.3484C94.859 41.9631 95.9992 42.2766 96.7687 42.9322C97.5383 43.5592 97.9375 44.5284 97.9375 45.7825C97.9375 46.4096 97.8234 46.9511 97.5669 47.4357C97.3388 47.9203 96.9968 48.2909 96.5408 48.6043C97.3674 49.0603 97.9944 49.659 98.3935 50.343C98.821 51.0271 99.0206 51.8252 99.0206 52.7087C99.0206 54.134 98.5645 55.2456 97.6239 56.0722C96.6832 56.8988 95.4291 57.3263 93.8329 57.3263H84.2559V57.3263Z" fill="#2B2B2A"/>
<path d="M104.615 57.3263V41.9631H106.525V55.5591H116.558V57.3263H104.615Z" fill="#2B2B2A"/>
<path d="M126.856 55.9298C128.567 55.9298 130.02 55.3596 131.132 54.1627C132.272 52.9939 132.842 51.4833 132.842 49.6875C132.842 47.8633 132.272 46.3811 131.16 45.184C130.02 44.0154 128.595 43.4169 126.856 43.4169C125.118 43.4169 123.693 44.0154 122.581 45.184C121.441 46.3811 120.871 47.8633 120.871 49.6875C120.871 51.4833 121.441 52.9939 122.581 54.1627C123.693 55.3596 125.118 55.9298 126.856 55.9298ZM126.856 57.7256C124.548 57.7256 122.667 56.9845 121.156 55.4453C119.645 53.9346 118.904 52.0249 118.904 49.6875C118.904 47.3503 119.645 45.4121 121.156 43.9013C122.667 42.3907 124.548 41.6211 126.856 41.6211C129.165 41.6211 131.075 42.3907 132.586 43.9013C134.096 45.4406 134.837 47.3503 134.837 49.6875C134.837 52.0249 134.096 53.9346 132.586 55.4453C131.075 56.9845 129.165 57.7256 126.856 57.7256Z" fill="#2B2B2A"/>
<path d="M139.953 57.3263V41.9346H141.863V49.6019L150.67 41.9346H153.179L146.965 47.4071L154.119 57.3263H151.81L145.597 48.7183L141.863 51.8538V57.3263H139.953Z" fill="#2B2B2A"/>
<path d="M158.434 57.3264V41.8777H160.372V57.3264H158.434Z" fill="#2B2B2A"/>
<path d="M54.8657 57.3263V49.6304L47.9395 41.9631H50.3336L55.8347 48.0342L61.3075 41.9631H63.7301L56.7754 49.659V57.3263H54.8657Z" stroke="#2B2B2A" stroke-width="0.0762" stroke-miterlimit="22.9256"/>
<path d="M68.399 51.3977H75.1542L71.7624 44.5854L68.399 51.3977V51.3977ZM63.4395 57.3263L70.9643 41.9631H72.5604L80.1708 57.3263H78.0901L76.0094 53.1933H67.5155L65.4918 57.3263H63.4395Z" stroke="#2B2B2A" stroke-width="0.0762" stroke-miterlimit="22.9256"/>
<path d="M86.1655 48.0342H93.5194C94.3175 48.0342 94.9445 47.8348 95.3722 47.4926C95.7997 47.1221 95.9992 46.5806 95.9992 45.8966C95.9992 45.1838 95.7997 44.6423 95.3722 44.2717C94.9731 43.9012 94.346 43.7302 93.5194 43.7302H86.1655V48.0342ZM86.1655 55.5591H94.2034C95.0871 55.5591 95.7711 55.3026 96.2557 54.7896C96.7687 54.2764 97.0252 53.5639 97.0252 52.6804C97.0252 51.7966 96.7687 51.0841 96.2557 50.5711C95.7711 50.0579 95.0871 49.8014 94.2034 49.8014H86.1655V55.5591ZM84.2559 57.3263V41.9631H93.3484C94.859 41.9631 95.9992 42.2766 96.7687 42.9322C97.5383 43.5592 97.9375 44.5284 97.9375 45.7825C97.9375 46.4096 97.8234 46.9511 97.5669 47.4357C97.3388 47.9203 96.9968 48.2909 96.5408 48.6043C97.3674 49.0603 97.9944 49.659 98.3935 50.343C98.821 51.0271 99.0206 51.8252 99.0206 52.7087C99.0206 54.134 98.5645 55.2456 97.6239 56.0722C96.6832 56.8988 95.4291 57.3263 93.8329 57.3263H84.2559V57.3263Z" stroke="#2B2B2A" stroke-width="0.0762" stroke-miterlimit="22.9256"/>
<path d="M104.615 57.3263V41.9631H106.525V55.5591H116.558V57.3263H104.615Z" stroke="#2B2B2A" stroke-width="0.0762" stroke-miterlimit="22.9256"/>
<path d="M126.856 55.9298C128.567 55.9298 130.02 55.3596 131.132 54.1627C132.272 52.9939 132.842 51.4833 132.842 49.6875C132.842 47.8633 132.272 46.3811 131.16 45.184C130.02 44.0154 128.595 43.4169 126.856 43.4169C125.118 43.4169 123.693 44.0154 122.581 45.184C121.441 46.3811 120.871 47.8633 120.871 49.6875C120.871 51.4833 121.441 52.9939 122.581 54.1627C123.693 55.3596 125.118 55.9298 126.856 55.9298ZM126.856 57.7256C124.548 57.7256 122.667 56.9845 121.156 55.4453C119.645 53.9346 118.904 52.0249 118.904 49.6875C118.904 47.3503 119.645 45.4121 121.156 43.9013C122.667 42.3907 124.548 41.6211 126.856 41.6211C129.165 41.6211 131.075 42.3907 132.586 43.9013C134.096 45.4406 134.837 47.3503 134.837 49.6875C134.837 52.0249 134.096 53.9346 132.586 55.4453C131.075 56.9845 129.165 57.7256 126.856 57.7256Z" stroke="#2B2B2A" stroke-width="0.0762" stroke-miterlimit="22.9256"/>
<path d="M139.953 57.3263V41.9346H141.863V49.6019L150.67 41.9346H153.179L146.965 47.4071L154.119 57.3263H151.81L145.597 48.7183L141.863 51.8538V57.3263H139.953Z" stroke="#2B2B2A" stroke-width="0.0762" stroke-miterlimit="22.9256"/>
<path d="M158.434 57.3264V41.8777H160.372V57.3264H158.434Z" stroke="#2B2B2A" stroke-width="0.0762" stroke-miterlimit="22.9256"/>
<path d="M160.374 38.8021H158.322V40.2443H160.374V38.8021Z" fill="#2B2B2A"/>
<path fill-rule="evenodd" clip-rule="evenodd" d="M30.7168 37.1913H37.7199C38.3743 37.1913 39.0023 37.3094 39.5843 37.525L30.7168 47.3474V37.1913ZM30.707 47.3493L30.7151 47.3483L30.707 47.3493ZM42.1086 39.4524C42.7466 40.3391 43.1234 41.4251 43.1234 42.5948V56.7609C43.1234 59.7328 40.692 62.1642 37.7199 62.1642H32.3556V50.2445L42.1086 39.4524V39.4524Z" fill="white" stroke="#2B2B2A" stroke-width="0.3" stroke-miterlimit="22.9256"/>
<path fill-rule="evenodd" clip-rule="evenodd" d="M30.7228 37.1913H23.7256C23.0714 37.1913 22.4432 37.3094 21.8614 37.525L30.5763 47.3478L30.7228 37.1913ZM19.3371 39.4524C18.6991 40.3393 18.3223 41.4251 18.3223 42.5948V56.7609C18.3223 59.7328 20.7537 62.1642 23.7256 62.1642H29.0901V50.2445L19.3371 39.4524V39.4524Z" fill="#2B2B2A" stroke="#2B2B2A" stroke-width="0.0762" stroke-miterlimit="22.9256"/>
<path d="M167.877 39.3888C167.008 39.3888 166.221 39.7409 165.651 40.3103C165.082 40.8796 164.73 41.6665 164.73 42.5355C164.73 43.4047 165.082 44.1914 165.651 44.7607C166.221 45.3303 167.008 45.6824 167.877 45.6824C168.746 45.6824 169.533 45.3301 170.102 44.7607C170.671 44.1914 171.023 43.4047 171.023 42.5355C171.023 41.6665 170.671 40.8796 170.102 40.3103C169.533 39.7411 168.746 39.3888 167.877 39.3888ZM165.189 39.8483C165.877 39.1607 166.827 38.7351 167.877 38.7351C168.926 38.7351 169.876 39.1605 170.564 39.8483C171.252 40.5359 171.677 41.4862 171.677 42.5355C171.677 43.5849 171.252 44.5351 170.564 45.2229C169.876 45.9105 168.926 46.3361 167.877 46.3361C166.827 46.3361 165.877 45.9105 165.189 45.2229C164.502 44.5351 164.076 43.5849 164.076 42.5355C164.076 41.4862 164.502 40.5359 165.189 39.8483Z" fill="#2B2B2A"/>
<path d="M168.124 42.2857C168.38 42.2857 168.584 42.2339 168.733 42.1315C168.883 42.029 168.958 41.8428 168.958 41.575C168.958 41.2865 168.853 41.09 168.644 40.9857C168.532 40.9313 168.382 40.9031 168.195 40.9031H166.856V42.2857H168.124V42.2857ZM166.309 40.4321H168.182C168.49 40.4321 168.744 40.4774 168.944 40.5675C169.324 40.7394 169.514 41.0582 169.514 41.5223C169.514 41.7648 169.464 41.9632 169.364 42.1173C169.263 42.2715 169.123 42.3955 168.944 42.4896C169.102 42.5535 169.22 42.638 169.3 42.7423C169.38 42.8475 169.425 43.0168 169.435 43.2518L169.489 44.4773L168.921 44.4806L168.891 43.3486C168.879 43.0845 168.78 42.9067 168.597 42.8165C168.493 42.7676 168.328 42.7423 168.105 42.7423H166.856V44.4773H166.309V40.4321V40.4321Z" fill="#2B2B2A"/>
<path fill-rule="evenodd" clip-rule="evenodd" d="M38.304 26.7222C38.2879 26.6789 38.2637 26.6522 38.2294 26.6472C38.014 26.6168 37.5439 26.7488 37.0833 26.8986C36.1729 27.1943 35.2552 27.4771 34.417 27.9491C33.7614 28.3183 33.1082 28.7985 32.5728 29.386C31.372 30.703 30.8188 32.7374 30.3921 34.4361C30.325 34.7025 30.3014 34.9232 30.4015 35.0516C30.4228 35.0788 30.4536 35.0961 30.4914 35.1059L38.304 26.7222V26.7222Z" fill="white" stroke="#2B2B2A" stroke-width="0.3" stroke-miterlimit="22.9256"/>
<path fill-rule="evenodd" clip-rule="evenodd" d="M38.3048 26.7224C38.3476 26.7337 38.3742 26.7546 38.3803 26.7874C38.4183 26.9929 38.3088 27.4612 38.1819 27.9217C37.931 28.8322 37.6933 29.7485 37.2691 30.6064C36.9372 31.2773 36.4979 31.9565 35.9498 32.5326C34.7216 33.8238 32.773 34.5578 31.1447 35.137C30.8892 35.2278 30.6766 35.2723 30.5482 35.1877C30.5211 35.1699 30.5031 35.1417 30.4922 35.1061L38.3048 26.7224V26.7224Z" fill="#2B2B2A" stroke="#2B2B2A" stroke-width="0.0762" stroke-miterlimit="22.9256"/>
</svg>

<svg xmlns="http://www.w3.org/2000/svg" fill="none" viewBox="0 0 190 94"><rect width="188" height="91.643" x="1" y="1.179" fill="#fff" stroke="#000" stroke-width="2" rx="11"/><path fill="#2B2B2A" d="M54.866 57.326V49.63l-6.926-7.667h2.394l5.5 6.071 5.473-6.07h2.423l-6.955 7.695v7.667h-1.91zM68.399 51.398h6.755l-3.392-6.813-3.363 6.813zm-4.96 5.928l7.525-15.363h1.596l7.61 15.363h-2.08l-2.08-4.133h-8.495l-2.023 4.133h-2.053zM86.165 48.034h7.354c.798 0 1.425-.2 1.853-.541.428-.37.627-.912.627-1.596 0-.713-.2-1.255-.627-1.625-.399-.37-1.026-.542-1.853-.542h-7.354v4.304zm0 7.525h8.038c.884 0 1.568-.256 2.053-.77.513-.513.77-1.225.77-2.109 0-.883-.257-1.596-.77-2.109-.485-.513-1.169-.77-2.053-.77h-8.038v5.758zm-1.91 1.767V41.963h9.093c1.511 0 2.651.314 3.42.97.77.626 1.17 1.595 1.17 2.85 0 .627-.115 1.168-.371 1.653-.228.484-.57.855-1.026 1.168.826.456 1.453 1.055 1.853 1.739.427.684.627 1.482.627 2.366 0 1.425-.457 2.537-1.397 3.363-.94.827-2.195 1.254-3.791 1.254h-9.577zM104.615 57.326V41.963h1.91V55.56h10.033v1.767h-11.943zM126.856 55.93c1.711 0 3.164-.57 4.276-1.767 1.14-1.17 1.71-2.68 1.71-4.475 0-1.825-.57-3.307-1.682-4.504-1.14-1.169-2.565-1.767-4.304-1.767-1.738 0-3.163.598-4.275 1.767-1.14 1.197-1.71 2.68-1.71 4.504 0 1.795.57 3.306 1.71 4.475 1.112 1.197 2.537 1.767 4.275 1.767zm0 1.796c-2.308 0-4.189-.742-5.7-2.28-1.511-1.511-2.252-3.421-2.252-5.758 0-2.338.741-4.276 2.252-5.787 1.511-1.51 3.392-2.28 5.7-2.28 2.309 0 4.219.77 5.73 2.28 1.51 1.54 2.251 3.45 2.251 5.786 0 2.338-.741 4.248-2.251 5.758-1.511 1.54-3.421 2.28-5.73 2.28zM139.953 57.326V41.935h1.91v7.667l8.807-7.667h2.509l-6.214 5.472 7.154 9.92h-2.309l-6.213-8.609-3.734 3.136v5.472h-1.91zM158.434 57.326V41.878h1.938v15.448h-1.938z"/><path stroke="#2B2B2A" stroke-miterlimit="22.926" stroke-width=".076" d="M54.866 57.326V49.63l-6.926-7.667h2.394l5.5 6.071 5.473-6.07h2.423l-6.955 7.695v7.667h-1.91zM68.399 51.398h6.755l-3.392-6.813-3.363 6.813v0zm-4.96 5.928l7.525-15.363h1.596l7.61 15.363h-2.08l-2.08-4.133h-8.495l-2.023 4.133h-2.053zM86.165 48.034h7.354c.798 0 1.425-.2 1.853-.541.428-.37.627-.912.627-1.596 0-.713-.2-1.255-.627-1.625-.399-.37-1.026-.542-1.853-.542h-7.354v4.304zm0 7.525h8.038c.884 0 1.568-.256 2.053-.77.513-.513.77-1.225.77-2.109 0-.883-.257-1.596-.77-2.109-.485-.513-1.169-.77-2.053-.77h-8.038v5.758zm-1.91 1.767V41.963h9.093c1.511 0 2.651.314 3.42.97.77.626 1.17 1.595 1.17 2.85 0 .627-.115 1.168-.371 1.653-.228.484-.57.855-1.026 1.168.826.456 1.453 1.055 1.853 1.739.427.684.627 1.482.627 2.366 0 1.425-.457 2.537-1.397 3.363-.94.827-2.195 1.254-3.791 1.254h-9.577v0zM104.615 57.326V41.963h1.91V55.56h10.033v1.767h-11.943zM126.856 55.93c1.711 0 3.164-.57 4.276-1.767 1.14-1.17 1.71-2.68 1.71-4.475 0-1.825-.57-3.307-1.682-4.504-1.14-1.169-2.565-1.767-4.304-1.767-1.738 0-3.163.598-4.275 1.767-1.14 1.197-1.71 2.68-1.71 4.504 0 1.795.57 3.306 1.71 4.475 1.112 1.197 2.537 1.767 4.275 1.767zm0 1.796c-2.308 0-4.189-.742-5.7-2.28-1.511-1.511-2.252-3.421-2.252-5.758 0-2.338.741-4.276 2.252-5.787 1.511-1.51 3.392-2.28 5.7-2.28 2.309 0 4.219.77 5.73 2.28 1.51 1.54 2.251 3.45 2.251 5.786 0 2.338-.741 4.248-2.251 5.758-1.511 1.54-3.421 2.28-5.73 2.28zM139.953 57.326V41.935h1.91v7.667l8.807-7.667h2.509l-6.214 5.472 7.154 9.92h-2.309l-6.213-8.609-3.734 3.136v5.472h-1.91zM158.434 57.326V41.878h1.938v15.448h-1.938z"/><path fill="#2B2B2A" d="M160.374 38.802h-2.052v1.442h2.052v-1.442z"/><path fill="#fff" fill-rule="evenodd" stroke="#2B2B2A" stroke-miterlimit="22.926" stroke-width=".3" d="M30.717 37.191h7.003c.654 0 1.282.118 1.864.334l-8.867 9.822V37.191zm-.01 10.158h.008-.008zm11.402-7.897a5.366 5.366 0 0 1 1.014 3.143V56.76c0 2.972-2.431 5.403-5.403 5.403h-5.364v-11.92l9.753-10.792v0z" clip-rule="evenodd"/><path fill="#2B2B2A" fill-rule="evenodd" stroke="#2B2B2A" stroke-miterlimit="22.926" stroke-width=".076" d="M30.723 37.191h-6.997c-.655 0-1.283.118-1.865.334l8.715 9.823.147-10.157zm-11.386 2.261a5.366 5.366 0 0 0-1.015 3.143V56.76c0 2.972 2.432 5.403 5.404 5.403h5.364v-11.92l-9.753-10.792v0z" clip-rule="evenodd"/><path fill="#2B2B2A" d="M167.877 39.389a3.14 3.14 0 0 0-2.226.921 3.138 3.138 0 0 0-.921 2.225c0 .87.352 1.656.921 2.226a3.14 3.14 0 0 0 2.226.921c.869 0 1.656-.352 2.225-.921.569-.57.921-1.356.921-2.226 0-.868-.352-1.655-.921-2.225a3.137 3.137 0 0 0-2.225-.921zm-2.688.46a3.79 3.79 0 0 1 2.688-1.114c1.049 0 1.999.425 2.687 1.113a3.787 3.787 0 0 1 1.113 2.688c0 1.049-.425 2-1.113 2.687a3.79 3.79 0 0 1-2.687 1.113c-1.05 0-2-.425-2.688-1.113a3.792 3.792 0 0 1-1.113-2.688c0-1.049.426-2 1.113-2.687z"/><path fill="#2B2B2A" d="M168.124 42.286c.256 0 .46-.052.609-.154.15-.103.225-.29.225-.557 0-.289-.105-.485-.314-.59a1.037 1.037 0 0 0-.449-.082h-1.339v1.383h1.268zm-1.815-1.854h1.873c.308 0 .562.045.762.136.38.171.57.49.57.954 0 .243-.05.441-.15.595a1.103 1.103 0 0 1-.42.373.824.824 0 0 1 .356.252c.08.105.125.275.135.51l.054 1.225-.568.004-.03-1.132c-.012-.264-.111-.442-.294-.532-.104-.05-.269-.075-.492-.075h-1.249v1.735h-.547v-4.045z"/><path fill="#fff" fill-rule="evenodd" stroke="#2B2B2A" stroke-miterlimit="22.926" stroke-width=".3" d="M38.304 26.722c-.016-.043-.04-.07-.075-.075-.215-.03-.685.102-1.146.252-.91.295-1.828.578-2.666 1.05-.656.37-1.309.85-1.844 1.437-1.201 1.317-1.754 3.351-2.18 5.05-.068.267-.092.487.008.616a.161.161 0 0 0 .09.054l7.813-8.384v0z" clip-rule="evenodd"/><path fill="#2B2B2A" fill-rule="evenodd" stroke="#2B2B2A" stroke-miterlimit="22.926" stroke-width=".076" d="M38.305 26.722c.043.012.07.033.075.065.038.206-.071.674-.198 1.135-.251.91-.489 1.826-.913 2.684a7.876 7.876 0 0 1-1.32 1.927c-1.227 1.29-3.176 2.025-4.804 2.604-.256.09-.468.135-.597.05a.144.144 0 0 1-.056-.08l7.813-8.385v0z" clip-rule="evenodd"/></svg>
